X: 100352
M: C|
L: 1/8
Q: "Moderato"
K: D
|:\
vA,2D2 (D3E) | (DE)FE D2A,2 | B,2E2 (E3F) | (G2F2) E2D2 |\
|:\
vA2d2 (d3e) | (de)fe d2A2 | B2e2 (e3f) | {a}(g3f) e2d2 |\
(f3e) d2B2 | A2(Bc) (d3e) | (.d3.B) (BA)GF | (EF)GF (E2D2) :|
|:\
vA,B,DE DA,DE | FGEF DEDA, | B,DEF EB,EF | (GF)dF (E2D2) |\
|:\
vAd (dc/d/) fd (dc/d/) | Adfe d2A2 | E^GB^d edef | .e(a/g/) .f(g/f/) e2d2 |\
edef dABd | AF {F}ED ABde | (fd)eB (dA)BF | (E>F)GF E2D2 :|


